icon-svg/rooms-lounge.svg

<svg xmlns="http://www.w3.org/2000/svg" fill="#44739e" viewBox="0 0 24 24"><path d="M24 17c3.313 0 6 .687 6 4 0 .553-.447 1-1 1h-1v1c0 1.104-.896 2-2 2s-2-.896-2-2v-1H8v1c0 1.104-.896 2-2 2s-2-.896-2-2v-1H3c-.553 0-1-.447-1-1 0-.053.014-.103.016-.155-.002-.028-.016-.05-.016-.077v-6.861C2 12.858 2.858 12 3.907 12h.186C5.142 12 6 12.858 6 13.907V17zM4.093 10h-.186c-.598 0-1.399.194-1.907.436C2.795 7.357 5.801 5 10.48 5c4.481 0 7.29 2.117 8.52 5h5.349C26.365 10 28 11.635 28 13.651v.436a.912.912 0 0 1-.913.913H8v-1.093C8 11.753 6.247 10 4.093 10"/></svg>

<?xml version="1.0" encoding="UTF-8"?>
<svg width="32px" height="32px" viewBox="0 0 32 32" fill="#44739e" version="1.1" xmlns="http://www.w3.org/2000/svg" xmlns:xlink="http://www.w3.org/1999/xlink">
            <path d="M24,17 C27.313,17 30,17.687 30,21 C30,21.553 29.553,22 29,22 L28,22 L28,23 C28,24.104 27.104,25 26,25 C24.896,25 24,24.104 24,23 L24,22 L8,22 L8,23 C8,24.104 7.104,25 6,25 C4.896,25 4,24.104 4,23 L4,22 L3.232,22 L3,22 C2.447,22 2,21.553 2,21 C2,20.947 2.014,20.897 2.016,20.845 C2.014,20.817 2,20.795 2,20.768 L2,13.907 C2,12.858 2.858,12 3.907,12 L4.093,12 C5.142,12 6,12.858 6,13.907 L6,17 L24,17 Z M4.093,10 L3.907,10 C3.309,10 2.508,10.194 2,10.436 C2.795,7.357 5.801,5 10.48,5 C14.961,5 17.77,7.117 19,10 L24.349,10 C26.365,10 28,11.635 28,13.651 L28,14.087 C28,14.592 27.592,15 27.087,15 L8,15 L8,13.907 C8,11.753 6.247,10 4.093,10 Z"></path>
</svg>
